X: 28213
T: Mrs. Delaney
R: reel
M: 4/4
K: Dmixolydian
ed|cAGF G2AF|DGBG dGBd|cAGF G2eg|fdcA dfed|
cAGF G2 AF|DGBd c2 BA|FGAB cdeg|fdcA d2||
cA|Gggf g2 ag|fdeg fdcA|Gggf g2eg|fdcA BGAF|
Gggf g2 fg|abaf g2 fg|afge fdfd|cAGA f2||

